public/assets/clients/codegorilla-logo.svg

<svg width="41px" height="57px" viewBox="0 0 41 57" version="1.1" xmlns="http://www.w3.org/2000/svg" xmlns:xlink="http://www.w3.org/1999/xlink">
    <g id="DESIGN" stroke="none" stroke-width="1" fill="none" fill-rule="evenodd">
        <g id="CASE" transform="translate(-199.000000, -2643.000000)" fill="#000000" fill-rule="nonzero">
            <g id="codegorilla-logo" transform="translate(199.000000, 2643.000000)">
                <path d="M29.4241877,3.27517054 C34.1918193,7.25214197 37.0190726,12.3875706 38.1105693,18.4838563 C38.1640314,18.7826991 38.1951046,19.0854777 38.2203431,19.3906313 L38.2951087,20.3116563 C40.1063094,19.3442849 40.8395824,19.6917134 40.9774443,21.733942 C40.8979152,22.4547991 40.8539063,23.0796067 40.8332926,23.6271182 L40.8200282,24.1495589 C40.8179069,24.3155805 40.8179359,24.4737081 40.8196663,24.6246365 L40.8295123,25.0565183 L40.8575272,25.6324654 L40.9375569,26.7138531 L40.9520677,26.9740775 L40.9579255,27.2202784 L40.9524359,27.4566234 C40.9323333,27.8446337 40.8537228,28.208942 40.6604706,28.6363706 C39.8919293,30.0577834 38.9346772,30.5444175 37.9841214,30.5180908 C41.1880353,38.0590284 39.354138,46.7811897 32.8593357,52.3439734 C30.468464,54.3916306 27.590191,55.3850591 24.5496318,55.9490877 C19.4910791,56.886602 14.6024114,56.2617734 10.1816055,53.6424877 C5.63813504,50.951002 2.99704951,46.7313734 1.97394096,41.5921449 C1.13070899,37.3574852 1.64255611,33.3985539 3.42636318,29.7423132 L3.14934141,29.8157661 L2.9545916,29.8605691 L2.7537394,29.8998278 L2.54845835,29.9316465 L2.34042202,29.9541293 C2.27080332,29.959857 2.20100433,29.9637127 2.13130398,29.9653805 L1.92277779,29.9635043 C0.815191567,29.9151211 -0.195737148,29.2257486 0.0324771433,26.6011991 C0.104664643,25.7689991 0.120133393,24.9336777 0.123457817,24.0976099 L0.127121468,22.4251826 C0.12943575,22.1465134 0.133702472,21.8679372 0.141572538,21.589542 C0.150256748,21.296942 0.202362011,20.9972849 0.285947537,20.7166277 C0.515536357,19.9457706 1.15436859,19.6124563 1.9218357,19.8708563 C2.21547057,19.9696563 2.48196728,20.1477134 2.73815149,20.2779991 L2.83335499,19.7327522 L3.00857097,18.6346899 C3.12659268,17.9018802 3.25765337,17.1709951 3.46545412,16.4627991 C5.25060215,10.3784563 8.57828307,5.3619134 14.0878719,2.04939911 C19.2756022,-1.06877232 24.773793,-0.604086606 29.4241877,3.27517054 Z M27.2786449,17.432342 C25.1249607,17.8356849 23.0157831,18.4702849 20.8827239,18.986542 C20.6363094,19.0457134 20.3377897,19.0603706 20.1049443,18.9778563 C17.5002239,18.0539134 14.8412272,17.3709991 12.068793,17.2743706 C10.2966712,17.2130277 8.5571153,17.428542 7.00047057,18.3942849 C4.90431925,19.6944277 4.03806925,21.7127706 4.81042122,24.0579134 C5.04459886,24.7694511 5.43848343,25.563521 5.85378655,26.337402 L6.67197652,27.8278095 C6.7357098,27.9446943 6.79747715,28.059116 6.85663833,28.1705991 C4.48096399,32.692002 3.2461778,36.5316306 4.22857912,41.4645734 C5.12793767,45.9795163 7.44825017,49.6872306 11.4402732,52.0519163 C15.3242864,54.3530877 19.619714,54.9024591 24.0644015,54.078402 C26.7364245,53.5833163 29.2651581,52.710402 31.3656515,50.9108306 C38.1082502,45.1357471 39.8925509,35.9496662 34.6937602,28.7382571 L34.4511559,28.4102318 C34.3829052,28.3264122 34.3200011,28.2445623 34.2629212,28.1657134 L34.5265475,27.6604337 L35.0657914,26.6628649 C35.4227175,25.9999461 35.7639715,25.3364196 36.0263587,24.6431134 C37.1753883,21.6090849 35.945487,19.0115134 32.9108982,17.8546849 C31.0785298,17.1560277 29.1604048,17.0800277 27.2786449,17.432342 Z" id="Combined-Shape"></path>
                <path d="M12.9816663,18.478102 C15.4658933,18.6849306 17.8497091,19.3352734 20.1922749,20.1696449 C20.5130479,20.2841877 20.9445446,20.2771306 21.2685742,20.1631306 C24.0990841,19.169702 26.9692157,18.3874449 30.0027189,18.4406449 C31.221765,18.4623591 32.406617,18.6713591 33.4758604,19.3081306 C35.2056466,20.3379306 35.8792157,21.837302 35.1958768,23.7291591 C34.9129615,24.5125698 34.5066524,25.2520855 34.0841505,25.9848154 L33.5762366,26.8632092 C33.4925758,27.0098569 33.4099825,27.156827 33.3293143,27.3044163 C33.1795117,27.5780163 32.9537222,27.8103591 32.7431301,28.088302 C38.2782288,34.9456734 37.4765676,44.4690163 30.9205314,50.0843306 C28.9486729,51.7731591 26.5757124,52.5923306 24.0686893,53.0570163 C19.8975545,53.8300449 15.8664525,53.3148734 12.2217979,51.1553877 C8.47510379,48.9361877 6.297538,45.4564734 5.45408405,41.2194734 C4.53247221,36.5905306 5.56806432,32.3600449 8.41485708,28.582302 L8.51283588,28.4463062 L8.68623866,28.1903591 C8.07617287,27.252302 7.42268603,26.3641877 6.90109063,25.4044163 C6.53255445,24.7269306 6.23891958,23.9723591 6.09563011,23.2172449 C5.75206103,21.4122449 6.47176497,20.0795306 8.14727484,19.2006449 C9.67189658,18.4010163 11.3213538,18.3396734 12.9816663,18.478102 Z M21.2218966,28.4677591 C20.9049229,28.6192163 20.6829328,28.6061877 20.3551038,28.4845877 C19.5485578,28.1843877 18.7224722,27.8521591 17.8779328,27.750102 C14.8938209,27.3896449 11.7566499,29.3276449 11.3571762,32.6770734 C11.2931301,33.2161306 11.3148407,33.8002449 11.1069624,34.2817591 C10.1028505,36.6106163 9.41896888,39.0116734 9.14161695,41.5370449 C8.72748866,45.3104449 10.2515676,48.213102 13.6215841,49.961102 C15.8279163,51.1054449 18.186765,51.6070449 20.9125216,51.6417877 C23.7533439,51.5782734 26.6706959,50.9295591 29.2157124,49.0670163 C31.2271926,47.5953306 32.2606137,45.6236734 32.3072913,43.105902 C32.3604821,40.2325591 31.6223242,37.5448734 30.5899887,34.9044163 C30.3962222,34.4098734 30.2773571,33.8572449 30.261617,33.3274163 C30.2067979,31.4616163 29.4691828,29.9459591 27.9570446,28.8759877 C25.8174722,27.3619591 23.5367814,27.3554449 21.2218966,28.4677591 Z M26.9697584,20.8232449 L25.5091224,21.2196512 C25.2653615,21.2846735 25.0212387,21.3483687 24.7764525,21.4095306 C24.2971926,21.529502 24.0979985,21.871502 23.9927025,22.304702 C23.7614854,23.2568734 24.0116992,24.0760449 24.7482288,24.7068449 C25.4831301,25.3360163 26.3330972,25.481502 27.2362551,25.0890163 C28.1649229,24.6851306 28.6371268,23.934902 28.6762058,22.9512449 C28.7131137,22.0213306 27.9613867,20.6902449 26.9697584,20.8232449 Z M14.3065512,20.8064163 L14.150454,20.8925672 L13.8044274,21.0699056 C13.6279616,21.1649734 13.4541417,21.2743591 13.3181795,21.419302 C12.6554657,22.1266449 12.5957617,23.307902 13.0951038,24.1406449 C13.617242,25.0113877 14.7027683,25.4722734 15.6640018,25.2323306 C16.6854821,24.9771877 17.4540347,24.1395591 17.5099393,23.1385306 L17.5181823,22.9002315 C17.5248599,22.185686 17.3445594,21.4917191 16.3153176,21.2884734 L16.0502071,21.2334248 L15.5108524,21.1073459 L14.3065512,20.8064163 Z" id="Combined-Shape"></path>
                <path d="M18.5876499,35.4663277 C17.7295413,35.4283277 16.9115972,35.2584134 16.2434558,34.6694134 C15.6393604,34.1368706 15.4255117,33.3812134 15.6930939,32.8003563 C15.9612189,32.2205849 16.6700676,31.900842 17.4668439,31.9909563 C18.614788,32.1196134 19.3990808,32.793842 19.976038,33.7237563 C20.5882749,34.7106706 20.2045413,35.3870706 19.0305446,35.465242 C18.8834558,35.4750134 18.7352814,35.4663277 18.5876499,35.4663277" id="Fill-5"></path>
                <path d="M22.8338489,35.6431363 C22.352418,35.4037363 21.7032732,35.2821363 21.4297206,34.895622 C21.0481581,34.3565649 21.4932239,33.7713649 21.8775002,33.3137363 C22.6313982,32.4169363 23.5312995,31.798622 24.7839969,32.026622 C25.8760364,32.2258506 26.3308719,33.2507649 25.7284048,34.1882791 C25.074918,35.2061363 24.0181581,35.4042791 22.8338489,35.6431363" id="Fill-7"></path>
                <path d="M28.2503538,40.0116706 C29.0606992,41.7004991 28.5119657,43.6254706 27.042163,44.7888134 C25.5799591,45.9467277 23.8740545,46.4803563 22.0476564,46.6052134 C19.3354689,46.7897849 16.6319657,46.637242 13.9463735,46.2062134 C13.8041696,46.1834134 13.667936,46.1285849 13.489367,46.0770134 C13.5262749,45.801242 13.5593834,45.5569563 13.6174591,45.1275563 C15.3808966,45.1275563 17.1372782,45.1834706 18.8887749,45.1123563 C20.6820643,45.0396134 22.4878374,44.9511277 24.1899426,44.2687563 C25.8545972,43.601042 27.0530183,42.5191277 27.4964558,40.7010991 C27.5583308,40.4486706 27.9485775,40.2765849 28.2503538,40.0116706" id="Fill-3"></path>
            </g>
        </g>
    </g>
</svg>

<svg width="41" height="57" viewBox="0 0 41 57" xmlns="http://www.w3.org/2000/svg"><g fill="#000" fill-rule="nonzero"><path d="M29.424 3.275c4.768 3.977 7.595 9.113 8.687 15.209.053.299.084.601.11.907l.074.92c1.811-.967 2.545-.62 2.682 1.423a26.24 26.24 0 00-.144 1.893l-.013.523a19.58 19.58 0 000 .475l.01.432.028.575.08 1.082.014.26.006.246-.006.237c-.02.388-.098.752-.292 1.18-.768 1.42-1.725 1.907-2.676 1.881 3.204 7.541 1.37 16.263-5.125 21.826-2.39 2.048-5.269 3.041-8.31 3.605-5.058.938-9.947.313-14.367-2.307-4.544-2.691-7.185-6.91-8.208-12.05-.843-4.235-.331-8.193 1.452-11.85l-.277.074-.194.045-.201.039-.206.032-.208.022c-.07.006-.139.01-.209.011l-.208-.001C.815 29.915-.196 29.226.033 26.6c.072-.832.087-1.667.09-2.503l.004-1.673c.002-.278.007-.557.015-.835.008-.293.06-.593.144-.873.23-.771.868-1.105 1.636-.846.293.099.56.277.816.407l.095-.545.176-1.098c.118-.733.249-1.464.456-2.172C5.251 10.378 8.578 5.362 14.088 2.049c5.188-3.118 10.686-2.653 15.336 1.226zM27.28 17.432c-2.154.404-4.263 1.038-6.396 1.555-.247.059-.545.073-.778-.01-2.605-.923-5.264-1.606-8.036-1.703-1.772-.061-3.512.155-5.069 1.12-2.096 1.3-2.962 3.319-2.19 5.664.235.711.628 1.506 1.044 2.28l.818 1.49.185.343c-2.376 4.521-3.61 8.36-2.628 13.294.899 4.515 3.22 8.222 7.211 10.587 3.884 2.301 8.18 2.85 12.624 2.026 2.672-.495 5.201-1.368 7.302-3.167 6.742-5.775 8.527-14.961 3.328-22.173l-.243-.328a5.451 5.451 0 01-.188-.244l.264-.506.539-.997c.357-.663.698-1.327.96-2.02 1.15-3.034-.08-5.631-3.115-6.788-1.832-.699-3.75-.775-5.632-.423z"/><path d="M12.982 18.478c2.484.207 4.868.857 7.21 1.692.321.114.753.107 1.077-.007 2.83-.993 5.7-1.776 8.734-1.722 1.219.021 2.404.23 3.473.867 1.73 1.03 2.403 2.53 1.72 4.421-.283.784-.69 1.523-1.112 2.256l-.508.878c-.083.147-.166.294-.247.441-.15.274-.375.506-.586.784 5.535 6.858 4.734 16.381-1.822 21.996-1.972 1.69-4.345 2.508-6.852 2.973-4.171.773-8.203.258-11.847-1.902-3.747-2.219-5.924-5.699-6.768-9.936-.922-4.628.114-8.859 2.96-12.637l.099-.136.173-.256c-.61-.938-1.263-1.826-1.785-2.786a7.647 7.647 0 01-.805-2.187c-.344-1.805.376-3.137 2.051-4.016 1.525-.8 3.174-.861 4.835-.723zm8.24 9.99c-.317.151-.54.138-.867.017-.806-.3-1.633-.633-2.477-.735-2.984-.36-6.121 1.578-6.52 4.927-.065.54-.043 1.123-.251 1.605-1.004 2.329-1.688 4.73-1.965 7.255-.415 3.773 1.11 6.676 4.48 8.424 2.206 1.144 4.565 1.646 7.29 1.68 2.841-.063 5.759-.711 8.304-2.574 2.011-1.472 3.045-3.443 3.091-5.961.053-2.873-.685-5.561-1.717-8.202a4.8 4.8 0 01-.328-1.577c-.055-1.865-.793-3.381-2.305-4.451-2.14-1.514-4.42-1.52-6.735-.408zm5.748-7.645l-1.46.397c-.245.065-.489.128-.734.19-.479.12-.678.462-.783.895-.232.952.019 1.771.755 2.402.735.629 1.585.775 2.488.382.929-.404 1.401-1.154 1.44-2.138.037-.93-.715-2.26-1.706-2.128zm-12.663-.017l-.157.087-.346.177c-.176.095-.35.204-.486.35-.663.707-.722 1.888-.223 2.72.522.871 1.608 1.332 2.569 1.092 1.021-.255 1.79-1.092 1.846-2.093l.008-.239c.007-.714-.173-1.408-1.203-1.612l-.265-.055-.54-.126-1.203-.3z"/><path d="M18.588 35.466c-.858-.038-1.676-.208-2.345-.797-.604-.532-.817-1.288-.55-1.869.268-.58.977-.9 1.774-.809 1.148.129 1.932.803 2.509 1.733.612.987.229 1.663-.945 1.741-.148.01-.296.001-.443.001M22.834 35.643c-.482-.24-1.13-.36-1.404-.747-.382-.54.063-1.125.448-1.582.753-.897 1.653-1.515 2.906-1.287 1.092.199 1.547 1.224.944 2.161-.653 1.018-1.71 1.216-2.894 1.455M28.25 40.012c.81 1.688.262 3.613-1.208 4.777-1.462 1.158-3.168 1.691-4.994 1.816-2.713.185-5.416.032-8.102-.399-.142-.023-.278-.077-.457-.129l.128-.95c1.764 0 3.52.056 5.272-.015 1.793-.072 3.599-.16 5.3-.843 1.666-.668 2.864-1.75 3.307-3.568.062-.252.453-.424.754-.69"/></g></svg>
